assets/images/mains.svg

<svg fill="none" height="21" viewBox="0 0 66 21" width="66" xmlns="http://www.w3.org/2000/svg"><path d="m14.7035 20.0293c-.3711 0-.7129-.0684-1.0254-.2051-.2929-.1367-.5371-.332-.7324-.5859s-.332-.5371-.4102-.8496c-.0781-.3321-.0683-.6836.0293-1.0547 0-.625.1075-1.2012.3223-1.7285.2344-.5469.4883-1.0645.7617-1.5528.293-.5078.5469-1.0058.7617-1.4941.2344-.5078.3516-1.0449.3516-1.6113-.4297 0-.8887.1367-1.3769.4101-.4883.2735-.9864.6348-1.4942 1.084-.4883.4492-.9765.957-1.4648 1.5234-.46878.5469-.918 1.1036-1.34769 1.67-.41015.5468-.77148 1.0742-1.08398 1.582-.29297.5078-.51758.9277-.67383 1.2598-.03906.0195-.13672.039-.29297.0586-.15625 0-.2539 0-.29297 0-.3125.1562-.50781.1562-.58593 0-.0586-.1758-.0586-.4395 0-.7911.07812-.3515.19531-.7421.35156-1.1718.15625-.4493.30273-.8692.43945-1.2598.15625-.4102.27344-.7422.35156-.9961.07813-.2734.0879-.4102.0293-.4102.0586-.0781.12695-.205.20508-.3808.07812-.1758.15625-.3613.23437-.5566.07813-.1954.14649-.3711.20508-.5274.0586-.1758.08789-.3125.08789-.4102 0-.1757-.06836-.2832-.20507-.3222-.11719-.0586-.23438-.0879-.35157-.0879-.35156-.1953-.73242-.0781-1.14258.3516-.39062.4101-.82031 1.0058-1.28906 1.7871-.44922.7617-.94726 1.6406-1.49414 2.6367-.52734.9765-1.11328 1.9238-1.75781 2.8418-.44922 0-.79102-.0586-1.025392-.1758-.234375-.1172-.351562-.4102-.351562-.8789.15625-.2148.390625-.6152.703124-1.2012.3125-.6054.66406-1.2695 1.05469-1.9922.39062-.7226.80078-1.455 1.23047-2.1972.44922-.7422.86914-1.3672 1.25976-1.875.41016-.5274.77149-.8789 1.08399-1.05472.33203-.19531.5957-.10742.79101.26372.33203-.21489.69336-.40044 1.08399-.55669.41015-.15625.82031-.23437 1.23047-.23437.27343 0 .49804.08789.67382.26367.19532.15625.3418.36133.43946.61519.11718.2344.20508.4883.26368.7618.0586.2539.0879.4785.0879.6738.2148-.1367.5664-.3711 1.0547-.7031.5078-.3516 1.0449-.7032 1.6113-1.05472.5859-.35156 1.1523-.6543 1.6992-.9082.5664-.27344 1.0254-.41016 1.377-.41016.3125 0 .5761.11719.791.35156.2344.21484.3515.48828.3515.82031-.7031 1.71871-1.2597 3.09571-1.6699 4.13091-.3906 1.0351-.6543 1.8457-.791 2.4316-.1172.5664-.1172.9766 0 1.2305.1367.2343.3711.4199.7031.5566.5274 0 1.0352-.0879 1.5235-.2637s.9668-.3711 1.4355-.5859c.4883-.2149.9766-.4102 1.4649-.5859.4882-.1758 1.0058-.2637 1.5527-.2637 0 .2148-.0586.4199-.1758.6152-.0976.1758-.2539.3125-.4687.4102-.1563.0976-.4395.2539-.8496.4687-.3907.1953-.8204.4102-1.2891.6446-.4688.2148-.918.4296-1.3477.6445-.4101.2148-.7031.3613-.8789.4394-.3906.1758-.6933.293-.9082.3516-.1953.0391-.4687.0586-.8203.0586zm5.7938-1.9336c.1757-1.1133.5078-2.1387.9961-3.0762.4882-.9375 1.0449-1.748 1.6699-2.4316.6445-.7031 1.3379-1.2793 2.0801-1.7285.7421-.4492 1.4648-.7324 2.1679-.8496.7032-.13675 1.3477-.10746 1.9336.0879.6055.1953 1.0938.5859 1.4649 1.1718 0 .4493-.1075.8789-.3223 1.2891-.1953.4102-.4199.8203-.6738 1.2305-.2344.4101-.459.83-.6739 1.2597-.1953.4297-.2929.8887-.2929 1.377 0 .5078.1074.918.3222 1.2304.2344.293.6348.4395 1.2012.4395.4688 0 .918-.0684 1.3477-.2051.4492-.1367.8984-.2051 1.3476-.2051.0782 0 .2051.0098.3809.0293h.3808c-.2343.3321-.5371.6153-.9082.8497-.3711.2343-.7617.4394-1.1718.6152-.4102.1562-.8399.2734-1.2891.3515-.4297.0782-.8301.1172-1.2012.1172-.3515 0-.664-.0781-.9375-.2343-.2734-.1563-.5078-.3614-.7031-.6153s-.3516-.5371-.4687-.8496c-.0977-.332-.1465-.6543-.1465-.9668-.293.3321-.6153.6836-.9668 1.0547-.3321.3516-.6934.6738-1.084.9668-.3711.293-.7813.5371-1.2305.7324-.4297.1953-.8789.293-1.3476.293-.5078 0-.9473-.1855-1.3184-.5566-.3711-.3907-.5566-.8497-.5566-1.377zm1.9336-.9082v.5273c.0195.1954.1464.3223.3808.3809.4883-.1172 1.0449-.3711 1.6699-.7617.625-.4102 1.211-.8789 1.7579-1.4063.5468-.5468 1.0058-1.123 1.3769-1.7285.3711-.625.5566-1.2207.5566-1.7871 0-.0391-.0097-.0976-.0292-.1758 0-.0976 0-.166 0-.2051-.6641 0-1.3379.1368-2.0215.4102s-1.2989.6543-1.8457 1.1426c-.5469.4687-.9961 1.0156-1.3477 1.6406-.332.625-.498 1.2793-.498 1.9629zm10.0418.9082c0-.2734.0293-.5078.0878-.7031.0586-.2149.1661-.4883.3223-.8203.1367-.1953.3809-.5664.7324-1.1133.3711-.5469.752-1.1231 1.1426-1.7285.4102-.6055.791-1.1719 1.1426-1.6993.3711-.5468.625-.9277.7617-1.1425.1758-.2539.3125-.3907.4102-.4102.0976-.0195.2832-.0293.5566-.0293.1758 0 .3613.0098.5566.0293.2149.0195.3516.1563.4102.4102-.2734.664-.6445 1.2988-1.1133 1.9043-.4492.5859-.8984 1.1718-1.3476 1.7578-.4297.5859-.8106 1.1914-1.1426 1.8164-.332.6055-.4981 1.2598-.4981 1.9629.0782 0 .1954.0097.3516.0293.1758.0195.3613.039.5566.0586.1954.0195.3711.039.5274.0586.1758.0195.3027.0195.3808 0 .1172-.0196.3125-.0586.586-.1172.293-.0782.5957-.1563.9082-.2344.332-.0781.6445-.1562.9375-.2344.293-.0781.498-.1367.6152-.1758v.2051c.0196.0781.0293.1367.0293.1758 0 .3906-.1855.7129-.5566.9668-.3516.2539-.7715.459-1.2598.6152-.4687.1368-.957.2344-1.4648.293-.4883.0391-.8692.0586-1.1426.0586-.293 0-.5957-.0293-.9082-.0879-.293-.0781-.5567-.1953-.791-.3516-.2344-.1562-.4297-.3515-.586-.5859-.1367-.2539-.205-.5566-.205-.9082zm8.5253-17.167966c.254 0 .4883.009766.7032.029297.2148.019531.4004.068359.5566.146489.1563.07812.2832.19531.3809.35156.0976.15625.1465.37109.1465.64453v.38086c0 .13672-.0196.27344-.0586.41015-.0196.11719-.0684.22461-.1465.32227-.0781.07813-.2051.11719-.3809.11719-.2734 0-.498-.09766-.6738-.29297-.1563-.19531-.2734-.41992-.3516-.67383-.0781-.27344-.1269-.54687-.1465-.82031-.0195-.27344-.0293-.47852-.0293-.615236zm-1.296 17.753866c0-.1757 0-.3125 0-.4101 0-.0977.0097-.1856.0292-.2637.0391-.0976.0879-.1953.1465-.293.0586-.0976.1368-.2246.2344-.3808.1563-.2735.4492-.752.8789-1.4356s.8887-1.4062 1.377-2.1679c.4882-.7617.9472-1.4844 1.3769-2.168.4492-.6836.7617-1.1621.9375-1.4355.0196-.0196.0684-.0293.1465-.0293h.2051.2051c.0976 0 .1562.0097.1757.0293.0196.0195.0586.0683.1172.1464.0782.0782.1563.1661.2344.2637.0977.0781.1758.1563.2344.2344.0781.0781.1367.1172.1758.1172.1757 0 .3613-.0586.5566-.1758s.3906-.2441.5859-.3809c.2149-.1562.4297-.2929.6446-.41012.2148-.11719.4394-.17579.6738-.17579.2539 0 .4883.0586.7031.17579.2149.11722.4004.26362.5567.43942.1562.1758.2734.3711.3515.586.0977.2148.1465.4297.1465.6445 0 .4492-.0683.8789-.2051 1.2891-.1172.4101-.2539.8203-.4101 1.2304-.1563.3907-.3028.791-.4395 1.2012-.1172.3906-.1758.8008-.1758 1.2305s.0489.7422.1465.9375c.0977.1757.3711.2636.8203.2636.5274 0 1.0254-.0781 1.4942-.2343.4883-.1563.9863-.2344 1.4941-.2344 0 .4687-.1465.8594-.4394 1.1719-.2735.3125-.625.5664-1.0547.7617-.4102.1758-.8594.3027-1.3477.3808-.4687.0586-.8984.0879-1.289.0879-.7422 0-1.2891-.205-1.6407-.6152-.332-.4297-.498-.9961-.498-1.6992 0-.4688.0781-.9082.2344-1.3184.1757-.4101.3613-.8105.5566-1.2011.2148-.3907.4102-.7813.5859-1.1719.1758-.3907.2637-.8106.2637-1.2598 0-.1172-.0195-.2734-.0586-.4687-.039-.1954-.166-.293-.3808-.293-.6446 0-1.2305.2051-1.7579.6152-.5078.4102-.9765.9278-1.4062 1.5528-.4102.625-.791 1.2988-1.1426 2.0214-.332.7227-.6543 1.3965-.9668 2.0215-.2929.625-.5761 1.1426-.8496 1.5528-.2734.4101-.5566.6152-.8496.6152-.4102 0-.7422-.127-.9961-.3809s-.3808-.5761-.3808-.9668zm12.3562-1.9336c0-.371.0488-.6933.1465-.9668.1172-.2734.4004-.4101.8496-.4101.0391 0 .1269.0098.2637.0293.1562 0 .2636.0098.3222.0293-.0195.918.127 1.6113.4395 2.0801.3125.4492.8984.6738 1.7578.6738.7031 0 1.3965-.1074 2.0801-.3223.6836-.2148 1.2988-.5273 1.8457-.9375.5664-.4297 1.0156-.9472 1.3476-1.5527.3516-.6055.5274-1.2891.5274-2.0508 0-.4687-.166-.8008-.4981-.9961-.3125-.1953-.664-.3515-1.0547-.4687-.3906-.1172-.7519-.2442-1.0839-.3809-.3125-.1562-.4688-.4199-.4688-.791 0-.4492.2734-.87891.8203-1.28907.5469-.41015 1.1914-.77148 1.9336-1.08398.7422-.33203 1.4746-.58594 2.1973-.76172.7422-.19531 1.3086-.29297 1.6992-.29297 0 .56641-.127.9668-.3809 1.20117-.2343.23438-.5273.41992-.8789.55664-.3515.13672-.7129.27344-1.084.41016-.3515.11719-.6445.35156-.8789.70317.3125.2539.5664.4882.7618.7031.2148.1953.3808.4101.498.6445s.1953.4981.2344.791c.039.2735.0586.6055.0586.9961 0 1.0156-.2246 1.9434-.6739 2.7832-.4296.8203-.996 1.5332-1.6992 2.1387-.7031.5859-1.5039 1.0449-2.4023 1.3769-.8985.3125-1.8164.4688-2.7539.4688-.5078 0-1.0059-.0586-1.4942-.1758-.4687-.1367-.8886-.3418-1.2597-.6152-.3516-.2735-.6348-.6153-.8496-1.0254-.2149-.4102-.3223-.8984-.3223-1.4649z" fill="#e8d8b1"/></svg>

<svg width="66" height="21" viewBox="0 0 66 21" fill="none" xmlns="http://www.w3.org/2000/svg">
<path d="M14.7035 20.0293C14.3324 20.0293 13.9906 19.9609 13.6781 19.8242C13.3852 19.6875 13.141 19.4922 12.9457 19.2383C12.7504 18.9844 12.6137 18.7012 12.5355 18.3887C12.4574 18.0566 12.4672 17.7051 12.5648 17.334C12.5648 16.709 12.6723 16.1328 12.8871 15.6055C13.1215 15.0586 13.3754 14.541 13.6488 14.0527C13.9418 13.5449 14.1957 13.0469 14.4105 12.5586C14.6449 12.0508 14.7621 11.5137 14.7621 10.9473C14.3324 10.9473 13.8734 11.084 13.3852 11.3574C12.8969 11.6309 12.3988 11.9922 11.891 12.4414C11.4027 12.8906 10.9145 13.3984 10.4262 13.9648C9.95742 14.5117 9.5082 15.0684 9.07851 15.6348C8.66836 16.1816 8.30703 16.709 7.99453 17.2168C7.70156 17.7246 7.47695 18.1445 7.3207 18.4766C7.28164 18.4961 7.18398 18.5156 7.02773 18.5352C6.87148 18.5352 6.77383 18.5352 6.73476 18.5352C6.42226 18.6914 6.22695 18.6914 6.14883 18.5352C6.09023 18.3594 6.09023 18.0957 6.14883 17.7441C6.22695 17.3926 6.34414 17.002 6.50039 16.5723C6.65664 16.123 6.80312 15.7031 6.93984 15.3125C7.09609 14.9023 7.21328 14.5703 7.2914 14.3164C7.36953 14.043 7.3793 13.9062 7.3207 13.9062C7.3793 13.8281 7.44765 13.7012 7.52578 13.5254C7.6039 13.3496 7.68203 13.1641 7.76015 12.9688C7.83828 12.7734 7.90664 12.5977 7.96523 12.4414C8.02383 12.2656 8.05312 12.1289 8.05312 12.0312C8.05312 11.8555 7.98476 11.748 7.84805 11.709C7.73086 11.6504 7.61367 11.6211 7.49648 11.6211C7.14492 11.4258 6.76406 11.543 6.3539 11.9727C5.96328 12.3828 5.53359 12.9785 5.06484 13.7598C4.61562 14.5215 4.11758 15.4004 3.5707 16.3965C3.04336 17.373 2.45742 18.3203 1.81289 19.2383C1.36367 19.2383 1.02187 19.1797 0.787498 19.0625C0.553123 18.9453 0.435936 18.6523 0.435936 18.1836C0.592186 17.9688 0.826561 17.5684 1.13906 16.9824C1.45156 16.377 1.80312 15.7129 2.19375 14.9902C2.58437 14.2676 2.99453 13.5352 3.42422 12.793C3.87344 12.0508 4.29336 11.4258 4.68398 10.918C5.09414 10.3906 5.45547 10.0391 5.76797 9.86328C6.1 9.66797 6.36367 9.75586 6.55898 10.127C6.89101 9.91211 7.25234 9.72656 7.64297 9.57031C8.05312 9.41406 8.46328 9.33594 8.87344 9.33594C9.14687 9.33594 9.37148 9.42383 9.54726 9.59961C9.74258 9.75586 9.88906 9.96094 9.98672 10.2148C10.1039 10.4492 10.1918 10.7031 10.2504 10.9766C10.309 11.2305 10.3383 11.4551 10.3383 11.6504C10.5531 11.5137 10.9047 11.2793 11.393 10.9473C11.9008 10.5957 12.4379 10.2441 13.0043 9.89258C13.5902 9.54102 14.1566 9.23828 14.7035 8.98438C15.2699 8.71094 15.7289 8.57422 16.0805 8.57422C16.393 8.57422 16.6566 8.69141 16.8715 8.92578C17.1059 9.14062 17.223 9.41406 17.223 9.74609C16.5199 11.4648 15.9633 12.8418 15.5531 13.877C15.1625 14.9121 14.8988 15.7227 14.7621 16.3086C14.6449 16.875 14.6449 17.2852 14.7621 17.5391C14.8988 17.7734 15.1332 17.959 15.4652 18.0957C15.9926 18.0957 16.5004 18.0078 16.9887 17.832C17.477 17.6562 17.9555 17.4609 18.4242 17.2461C18.9125 17.0312 19.4008 16.8359 19.8891 16.6602C20.3773 16.4844 20.8949 16.3965 21.4418 16.3965C21.4418 16.6113 21.3832 16.8164 21.266 17.0117C21.1684 17.1875 21.0121 17.3242 20.7973 17.4219C20.641 17.5195 20.3578 17.6758 19.9477 17.8906C19.557 18.0859 19.1273 18.3008 18.6586 18.5352C18.1898 18.75 17.7406 18.9648 17.3109 19.1797C16.9008 19.3945 16.6078 19.541 16.432 19.6191C16.0414 19.7949 15.7387 19.9121 15.5238 19.9707C15.3285 20.0098 15.0551 20.0293 14.7035 20.0293ZM20.4973 18.0957C20.673 16.9824 21.0051 15.957 21.4934 15.0195C21.9816 14.082 22.5383 13.2715 23.1633 12.5879C23.8078 11.8848 24.5012 11.3086 25.2434 10.8594C25.9855 10.4102 26.7082 10.127 27.4113 10.0098C28.1145 9.87305 28.759 9.90234 29.3449 10.0977C29.9504 10.293 30.4387 10.6836 30.8098 11.2695C30.8098 11.7188 30.7023 12.1484 30.4875 12.5586C30.2922 12.9688 30.0676 13.3789 29.8137 13.7891C29.5793 14.1992 29.3547 14.6191 29.1398 15.0488C28.9445 15.4785 28.8469 15.9375 28.8469 16.4258C28.8469 16.9336 28.9543 17.3438 29.1691 17.6562C29.4035 17.9492 29.8039 18.0957 30.3703 18.0957C30.8391 18.0957 31.2883 18.0273 31.718 17.8906C32.1672 17.7539 32.6164 17.6855 33.0656 17.6855C33.1438 17.6855 33.2707 17.6953 33.4465 17.7148C33.6418 17.7148 33.7688 17.7148 33.8273 17.7148C33.593 18.0469 33.2902 18.3301 32.9191 18.5645C32.548 18.7988 32.1574 19.0039 31.7473 19.1797C31.3371 19.3359 30.9074 19.4531 30.4582 19.5312C30.0285 19.6094 29.6281 19.6484 29.257 19.6484C28.9055 19.6484 28.593 19.5703 28.3195 19.4141C28.0461 19.2578 27.8117 19.0527 27.6164 18.7988C27.4211 18.5449 27.2648 18.2617 27.1477 17.9492C27.05 17.6172 27.0012 17.2949 27.0012 16.9824C26.7082 17.3145 26.3859 17.666 26.0344 18.0371C25.7023 18.3887 25.341 18.7109 24.9504 19.0039C24.5793 19.2969 24.1691 19.541 23.7199 19.7363C23.2902 19.9316 22.841 20.0293 22.3723 20.0293C21.8645 20.0293 21.425 19.8438 21.0539 19.4727C20.6828 19.082 20.4973 18.623 20.4973 18.0957ZM22.4309 17.1875C22.4309 17.3438 22.4309 17.5195 22.4309 17.7148C22.4504 17.9102 22.5773 18.0371 22.8117 18.0957C23.3 17.9785 23.8566 17.7246 24.4816 17.334C25.1066 16.9238 25.6926 16.4551 26.2395 15.9277C26.7863 15.3809 27.2453 14.8047 27.6164 14.1992C27.9875 13.5742 28.173 12.9785 28.173 12.4121C28.173 12.373 28.1633 12.3145 28.1438 12.2363C28.1438 12.1387 28.1438 12.0703 28.1438 12.0312C27.4797 12.0312 26.8059 12.168 26.1223 12.4414C25.4387 12.7148 24.8234 13.0957 24.2766 13.584C23.7297 14.0527 23.2805 14.5996 22.9289 15.2246C22.5969 15.8496 22.4309 16.5039 22.4309 17.1875ZM32.4727 18.0957C32.4727 17.8223 32.502 17.5879 32.5605 17.3926C32.6191 17.1777 32.7266 16.9043 32.8828 16.5723C33.0195 16.377 33.2637 16.0059 33.6152 15.459C33.9863 14.9121 34.3672 14.3359 34.7578 13.7305C35.168 13.125 35.5488 12.5586 35.9004 12.0312C36.2715 11.4844 36.5254 11.1035 36.6621 10.8887C36.8379 10.6348 36.9746 10.498 37.0723 10.4785C37.1699 10.459 37.3555 10.4492 37.6289 10.4492C37.8047 10.4492 37.9902 10.459 38.1855 10.4785C38.4004 10.498 38.5371 10.6348 38.5957 10.8887C38.3223 11.5527 37.9512 12.1875 37.4824 12.793C37.0332 13.3789 36.584 13.9648 36.1348 14.5508C35.7051 15.1367 35.3242 15.7422 34.9922 16.3672C34.6602 16.9727 34.4941 17.627 34.4941 18.3301C34.5723 18.3301 34.6895 18.3398 34.8457 18.3594C35.0215 18.3789 35.207 18.3984 35.4023 18.418C35.5977 18.4375 35.7734 18.457 35.9297 18.4766C36.1055 18.4961 36.2324 18.4961 36.3105 18.4766C36.4277 18.457 36.623 18.418 36.8965 18.3594C37.1895 18.2812 37.4922 18.2031 37.8047 18.125C38.1367 18.0469 38.4492 17.9688 38.7422 17.8906C39.0352 17.8125 39.2402 17.7539 39.3574 17.7148C39.3574 17.7539 39.3574 17.8223 39.3574 17.9199C39.377 17.998 39.3867 18.0566 39.3867 18.0957C39.3867 18.4863 39.2012 18.8086 38.8301 19.0625C38.4785 19.3164 38.0586 19.5215 37.5703 19.6777C37.1016 19.8145 36.6133 19.9121 36.1055 19.9707C35.6172 20.0098 35.2363 20.0293 34.9629 20.0293C34.6699 20.0293 34.3672 20 34.0547 19.9414C33.7617 19.8633 33.498 19.7461 33.2637 19.5898C33.0293 19.4336 32.834 19.2383 32.6777 19.0039C32.541 18.75 32.4727 18.4473 32.4727 18.0957ZM40.998 0.927734C41.252 0.927734 41.4863 0.9375 41.7012 0.957031C41.916 0.976562 42.1016 1.02539 42.2578 1.10352C42.4141 1.18164 42.541 1.29883 42.6387 1.45508C42.7363 1.61133 42.7852 1.82617 42.7852 2.09961C42.7852 2.2168 42.7852 2.34375 42.7852 2.48047C42.7852 2.61719 42.7656 2.75391 42.7266 2.89062C42.707 3.00781 42.6582 3.11523 42.5801 3.21289C42.502 3.29102 42.375 3.33008 42.1992 3.33008C41.9258 3.33008 41.7012 3.23242 41.5254 3.03711C41.3691 2.8418 41.252 2.61719 41.1738 2.36328C41.0957 2.08984 41.0469 1.81641 41.0273 1.54297C41.0078 1.26953 40.998 1.06445 40.998 0.927734ZM39.702 18.6816C39.702 18.5059 39.702 18.3691 39.702 18.2715C39.702 18.1738 39.7117 18.0859 39.7312 18.0078C39.7703 17.9102 39.8191 17.8125 39.8777 17.7148C39.9363 17.6172 40.0145 17.4902 40.1121 17.334C40.2684 17.0605 40.5613 16.582 40.991 15.8984C41.4207 15.2148 41.8797 14.4922 42.368 13.7305C42.8562 12.9688 43.3152 12.2461 43.7449 11.5625C44.1941 10.8789 44.5066 10.4004 44.6824 10.127C44.702 10.1074 44.7508 10.0977 44.8289 10.0977C44.9266 10.0977 44.9949 10.0977 45.034 10.0977C45.073 10.0977 45.1414 10.0977 45.2391 10.0977C45.3367 10.0977 45.3953 10.1074 45.4148 10.127C45.4344 10.1465 45.4734 10.1953 45.532 10.2734C45.6102 10.3516 45.6883 10.4395 45.7664 10.5371C45.8641 10.6152 45.9422 10.6934 46.0008 10.7715C46.0789 10.8496 46.1375 10.8887 46.1766 10.8887C46.3523 10.8887 46.5379 10.8301 46.7332 10.7129C46.9285 10.5957 47.1238 10.4688 47.3191 10.332C47.534 10.1758 47.7488 10.0391 47.9637 9.92188C48.1785 9.80469 48.4031 9.74609 48.6375 9.74609C48.8914 9.74609 49.1258 9.80469 49.3406 9.92188C49.5555 10.0391 49.741 10.1855 49.8973 10.3613C50.0535 10.5371 50.1707 10.7324 50.2488 10.9473C50.3465 11.1621 50.3953 11.377 50.3953 11.5918C50.3953 12.041 50.327 12.4707 50.1902 12.8809C50.073 13.291 49.9363 13.7012 49.7801 14.1113C49.6238 14.502 49.4773 14.9023 49.3406 15.3125C49.2234 15.7031 49.1648 16.1133 49.1648 16.543C49.1648 16.9727 49.2137 17.2852 49.3113 17.4805C49.409 17.6562 49.6824 17.7441 50.1316 17.7441C50.659 17.7441 51.157 17.666 51.6258 17.5098C52.1141 17.3535 52.6121 17.2754 53.1199 17.2754C53.1199 17.7441 52.9734 18.1348 52.6805 18.4473C52.407 18.7598 52.0555 19.0137 51.6258 19.209C51.2156 19.3848 50.7664 19.5117 50.2781 19.5898C49.8094 19.6484 49.3797 19.6777 48.9891 19.6777C48.2469 19.6777 47.7 19.4727 47.3484 19.0625C47.0164 18.6328 46.8504 18.0664 46.8504 17.3633C46.8504 16.8945 46.9285 16.4551 47.0848 16.0449C47.2605 15.6348 47.4461 15.2344 47.6414 14.8438C47.8562 14.4531 48.0516 14.0625 48.2273 13.6719C48.4031 13.2812 48.491 12.8613 48.491 12.4121C48.491 12.2949 48.4715 12.1387 48.4324 11.9434C48.3934 11.748 48.2664 11.6504 48.0516 11.6504C47.407 11.6504 46.8211 11.8555 46.2937 12.2656C45.7859 12.6758 45.3172 13.1934 44.8875 13.8184C44.4773 14.4434 44.0965 15.1172 43.7449 15.8398C43.4129 16.5625 43.0906 17.2363 42.7781 17.8613C42.4852 18.4863 42.202 19.0039 41.9285 19.4141C41.6551 19.8242 41.3719 20.0293 41.0789 20.0293C40.6687 20.0293 40.3367 19.9023 40.0828 19.6484C39.8289 19.3945 39.702 19.0723 39.702 18.6816ZM52.0582 16.748C52.0582 16.377 52.107 16.0547 52.2047 15.7812C52.3219 15.5078 52.6051 15.3711 53.0543 15.3711C53.0934 15.3711 53.1812 15.3809 53.318 15.4004C53.4742 15.4004 53.5816 15.4102 53.6402 15.4297C53.6207 16.3477 53.7672 17.041 54.0797 17.5098C54.3922 17.959 54.9781 18.1836 55.8375 18.1836C56.5406 18.1836 57.234 18.0762 57.9176 17.8613C58.6012 17.6465 59.2164 17.334 59.7633 16.9238C60.3297 16.4941 60.7789 15.9766 61.1109 15.3711C61.4625 14.7656 61.6383 14.082 61.6383 13.3203C61.6383 12.8516 61.4723 12.5195 61.1402 12.3242C60.8277 12.1289 60.4762 11.9727 60.0855 11.8555C59.6949 11.7383 59.3336 11.6113 59.0016 11.4746C58.6891 11.3184 58.5328 11.0547 58.5328 10.6836C58.5328 10.2344 58.8062 9.80469 59.3531 9.39453C59.9 8.98438 60.5445 8.62305 61.2867 8.31055C62.0289 7.97852 62.7613 7.72461 63.484 7.54883C64.2262 7.35352 64.7926 7.25586 65.1832 7.25586C65.1832 7.82227 65.0562 8.22266 64.8023 8.45703C64.568 8.69141 64.275 8.87695 63.9234 9.01367C63.5719 9.15039 63.2105 9.28711 62.8394 9.42383C62.4879 9.54102 62.1949 9.77539 61.9605 10.127C62.273 10.3809 62.5269 10.6152 62.7223 10.8301C62.9371 11.0254 63.1031 11.2402 63.2203 11.4746C63.3375 11.709 63.4156 11.9727 63.4547 12.2656C63.4937 12.5391 63.5133 12.8711 63.5133 13.2617C63.5133 14.2773 63.2887 15.2051 62.8394 16.0449C62.4098 16.8652 61.8434 17.5781 61.1402 18.1836C60.4371 18.7695 59.6363 19.2285 58.7379 19.5605C57.8394 19.873 56.9215 20.0293 55.984 20.0293C55.4762 20.0293 54.9781 19.9707 54.4898 19.8535C54.0211 19.7168 53.6012 19.5117 53.2301 19.2383C52.8785 18.9648 52.5953 18.623 52.3805 18.2129C52.1656 17.8027 52.0582 17.3145 52.0582 16.748Z" fill="#E8D8B1"/>
</svg>
